X: 23718
T: Lisnagun, The
R: jig
M: 6/8
K: Dmajor
dBA d3|efa f3|efa fed|edB dBA|
dBA d3|efa f3|efa fed|1 edB d3:|2 edB dea||
|:a2 f fed|efa f3|efa fed|edB dBA|
a2 f fed|efa f3|efa fed|edB d3|
a2 f fed|efa f3|efa fed|edB dBA|
dBA d3|efa f3|efa efa|efa efa|d3|

